svg/white/leo.svg

<?xml version="1.0" encoding="UTF-8"?>
<svg width="32px" height="32px" viewBox="0 0 32 32" version="1.1" xmlns="http://www.w3.org/2000/svg" xmlns:xlink="http://www.w3.org/1999/xlink">
    <title>svg/white/leo</title>
    <g id="white/leo" stroke="none" stroke-width="1" fill="none" fill-rule="evenodd">
        <path d="M16,-3.3553407e-15 C24.836556,-3.3553407e-15 32,7.163444 32,16 C32,24.836556 24.836556,32 16,32 C7.163444,32 0,24.836556 0,16 C0,7.163444 7.163444,-3.3553407e-15 16,-3.3553407e-15 Z M11.4368192,18.785512 L10.4398693,18.785512 L10.4398693,23.8757081 L11.8202614,24.5659041 L12.1557734,24.7384532 L12.5008715,24.9205882 L12.8363834,25.0835512 L13.1814815,25.2656863 L13.5265795,25.4382353 L13.8716776,25.6011983 L14.2167756,25.7833333 L14.9069717,26.1284314 L15.2424837,26.3009804 L15.7217865,26.5406318 L15.9230937,26.4543573 L16.2681917,26.3201525 L16.6132898,26.1859477 L16.9583878,26.0421569 L17.3034858,25.898366 L17.6485839,25.7737473 L17.3034858,24.9110022 L17.2747277,24.8534858 L16.9583878,24.9781046 L16.6132898,25.1123094 L16.2681917,25.2561002 L15.9230937,25.390305 L15.7697168,25.4574074 L15.5875817,25.3615468 L15.2424837,25.1889978 L14.9069717,25.0164488 L14.5618736,24.8438998 L14.2167756,24.6713508 L13.8716776,24.4988017 L13.5265795,24.3262527 L13.1814815,24.1441176 L12.8363834,23.9811547 L12.5008715,23.7990196 L12.1557734,23.6264706 L11.8202614,23.4635076 L11.4751634,23.2813725 L11.4368192,23.2622004 L11.4368192,18.785512 Z M19.2206972,16.5136166 L12.251634,16.5136166 L12.8363834,17.1271242 L13.4115468,17.7310458 L14.0058824,18.3349673 L14.5906318,18.9484749 L15.1657952,19.5523965 L15.2424837,19.638671 L15.2424837,22.3994553 L15.7505447,22.7924837 L16.3352941,23.2334423 L16.9104575,23.6839869 L17.495207,24.1249455 L18.0799564,24.5754902 L18.6551198,25.0164488 L18.8755991,25.1889978 L19.2398693,24.9205882 L19.8246187,24.5083878 L20.3997821,24.0866013 L20.9941176,23.6744009 L21.5788671,23.2622004 L22.1636166,22.85 L22.73878,22.4282135 L23.3235294,22.0160131 L23.9082789,21.6038126 L24.3875817,21.2491285 L24.4834423,18.6513072 L23.9082789,18.6321351 L23.4002179,18.612963 L23.41939,20.7314815 L23.3235294,20.7985839 L22.73878,21.2107843 L22.1636166,21.6325708 L21.5788671,22.0447712 L20.9941176,22.4665577 L20.3997821,22.8691721 L19.8246187,23.2909586 L19.2398693,23.7127451 L18.8947712,23.9619826 L18.6551198,23.7702614 L18.0799564,23.3293028 L17.495207,22.8787582 L16.9104575,22.4377996 L16.3352941,21.9872549 L16.2298475,21.9201525 L16.2298475,19.638671 L16.3352941,19.5428105 L16.9104575,18.9293028 L17.495207,18.3253813 L18.0799564,17.7118736 L18.6551198,17.1079521 L19.2206972,16.5136166 Z M14.2455338,13.3502179 L10.7082789,13.3502179 L10.554902,13.4269063 L10.1906318,13.6186275 L9.8167756,13.8103486 L9.45250545,14.0020697 L9.08823529,14.1937908 L8.34052288,14.5772331 L7.97625272,14.7689542 L7.61198257,14.9606754 L7.23812636,15.1523965 L6.87385621,15.3441176 L6.53834423,15.5262527 L6.5,21.0190632 L6.87385621,21.2778867 L7.23812636,21.5367102 L7.61198257,21.7859477 L8.34052288,22.3035948 L8.71437908,22.5624183 L8.87734205,22.687037 L9.08823529,22.4282135 L9.45250545,21.9489107 L9.48126362,21.9009804 L9.45250545,21.8722222 L9.08823529,21.6133987 L8.71437908,21.3449891 L8.34052288,21.0861656 L7.97625272,20.827342 L7.61198257,20.5685185 L7.50653595,20.5014161 L7.53529412,16.0630719 L7.61198257,16.0247277 L7.97625272,15.8425926 L8.34052288,15.6508715 L8.71437908,15.4783224 L9.08823529,15.2866013 L9.8167756,14.9223312 L10.1906318,14.7401961 L10.554902,14.558061 L10.9287582,14.3663399 L10.9383442,14.3663399 L11.0917211,14.4238562 L11.103,14.427 L14.2455338,15.7850763 L14.2455338,13.3502179 Z M23.1222222,9.24738562 L23.0551198,9.32407407 L22.8154684,9.62124183 L22.5662309,9.92799564 L22.5087146,10.0142702 L22.5662309,10.0813725 L22.8154684,10.2826797 L23.0551198,10.4744009 L23.2947712,10.6852941 L23.5440087,10.8866013 L23.7836601,11.0879085 L24.0328976,11.2988017 L24.272549,11.5001089 L24.3875817,11.5959695 L24.3971678,16.1301743 L24.272549,16.2068627 L24.0328976,16.3698257 L23.7836601,16.5136166 L23.5440087,16.6765795 L23.2947712,16.8203704 L23.0551198,16.9833333 L22.8154684,17.1271242 L22.5662309,17.2900871 L22.3265795,17.433878 L22.0869281,17.596841 L21.8472767,17.7406318 L21.6076253,17.9035948 L21.3583878,18.0473856 L21.1187364,18.2103486 L20.879085,18.3541394 L20.6394336,18.5171024 L20.3901961,18.6608932 L20.6394336,19.0443355 L20.879085,19.4373638 L20.9270153,19.5044662 L21.1187364,19.3798475 L21.3583878,19.2264706 L21.6076253,19.0826797 L21.8472767,18.9293028 L22.0869281,18.7759259 L22.3265795,18.622549 L22.5662309,18.4787582 L22.8154684,18.3253813 L23.0551198,18.1815904 L23.2947712,18.0282135 L23.5440087,17.8748366 L23.7836601,17.7214597 L24.0328976,17.5776688 L24.272549,17.4242919 L24.5122004,17.2805011 L24.7518519,17.1271242 L24.9915033,16.9737473 L25.2407407,16.8203704 L25.4803922,16.6765795 L25.4708061,11.1262527 L25.2407407,10.9441176 L24.9915033,10.7428105 L24.7518519,10.5510893 L24.5122004,10.3593682 L24.272549,10.158061 L24.0328976,9.97592593 L23.7836601,9.78420479 L23.5440087,9.5828976 L23.2947712,9.39117647 L23.1222222,9.24738562 Z M15.8176471,5.25 L15.635512,5.33627451 L15.2616558,5.54716776 L14.8973856,5.73888889 L14.5331155,5.94019608 L14.1592593,6.15108932 L13.7854031,6.34281046 L13.4115468,6.54411765 L13.7854031,6.76459695 L14.1592593,6.9754902 L14.3893246,7.10969499 L14.5331155,7.04259259 L14.8973856,6.8412854 L15.2616558,6.64956427 L15.635512,6.45784314 L15.7888889,6.38115468 L16.0093682,6.50577342 L16.3832244,6.72625272 L17.1117647,7.14803922 L17.8594771,7.58899782 L18.2333333,7.79989107 L18.9618736,8.24084967 L19.3357298,8.45174292 L20.0834423,8.89270153 L20.1984749,8.95021786 L20.1984749,13.3310458 L17.5814815,13.3310458 L17.581,13.336 L17.5623094,13.3310458 L17.5718954,15.7946623 L17.6485839,15.7659041 L17.746,15.724 L18.164,15.555 L18.2908497,15.5070806 L18.416,15.453 L18.797,15.3 L18.9331155,15.2482571 L19.2590414,15.1140523 L19.281,15.105 L19.886,14.861 L19.9013072,14.8552288 L19.947,14.836 L21.1858388,14.3375817 L21.1858388,8.39422658 L20.8215686,8.17374728 L20.4477124,7.96285403 L20.0834423,7.74237473 L19.7095861,7.52189542 L19.3357298,7.31100218 L18.9618736,7.09052288 L18.5976035,6.87004357 L18.2333333,6.65915033 L17.8594771,6.43867102 L17.4856209,6.21819172 L17.1117647,6.00729847 L16.7474946,5.78681917 L16.3832244,5.56633987 L16.0093682,5.35544662 L15.8176471,5.25 Z M12.0503268,6.96590414 L11.5997821,7.23431373 L11.1396514,7.52189542 L10.6795207,7.79989107 L10.21939,8.08747277 L9.75925926,8.36546841 L9.28954248,8.64346405 L8.83899782,8.93104575 L8.36928105,9.20904139 L7.90915033,9.49662309 L7.44901961,9.78420479 L6.98888889,10.0622004 L6.53834423,10.3401961 L6.51917211,13.704902 L6.98888889,13.704902 L7.44901961,13.714488 L7.516122,13.714488 L7.52570806,10.8961874 L7.90915033,10.6565359 L8.36928105,10.3785403 L8.83899782,10.1005447 L9.28954248,9.80337691 L9.75925926,9.52538126 L10.21939,9.23779956 L11.1396514,8.68180828 L11.5997821,8.39422658 L12.0694989,8.11623094 L12.079085,8.10664488 L12.5200436,8.36546841 L12.9897603,8.62429194 L13.9100218,9.16111111 L14.3701525,9.41993464 L14.8398693,9.67875817 L15.2904139,9.94716776 L15.7409586,10.1964052 L15.7601307,10.158061 L16.2202614,9.33366013 L15.7601307,9.06525054 L15.2904139,8.80642702 L14.8398693,8.54760349 L14.3701525,8.28877996 L13.9100218,8.01078431 L13.4498911,7.75196078 L12.9897603,7.49313725 L12.5200436,7.23431373 L12.0694989,6.9754902 L12.0503268,6.96590414 Z" id="Combined-Shape" fill="#FFFFFF"></path>
    </g>
</svg>

<svg width="32" height="32" viewBox="0 0 32 32" xmlns="http://www.w3.org/2000/svg"><path d="M16 0c8.837 0 16 7.163 16 16s-7.163 16-16 16S0 24.837 0 16 7.163 0 16 0zm-4.563 18.786h-.997v5.09l1.38.69.336.172.345.183.335.163.345.182.346.172.345.163.345.182.69.345.335.173.48.24.201-.087.345-.134.345-.134.345-.144.345-.144.346-.124-.346-.863-.028-.058-.317.125-.345.134-.345.144-.345.134-.153.067-.182-.095-.346-.173-.335-.173-.345-.172-.345-.173-.345-.172-.345-.173-.346-.182-.345-.163-.335-.182-.345-.173-.336-.162-.345-.183-.038-.019v-4.476zm7.784-2.272h-6.97l.585.613.576.604.594.604.585.613.575.604.076.087v2.76l.509.393.584.441.575.451.585.44.585.451.575.441.22.173.365-.268.585-.413.575-.421.594-.413.585-.412.585-.412.575-.422.585-.412.584-.412.48-.355.095-2.598-.575-.019-.508-.019.02 2.118-.096.068-.585.412-.575.422-.585.412-.585.422-.594.402-.575.422-.585.422-.345.249-.24-.192-.575-.44-.585-.451-.585-.441-.575-.45-.105-.068v-2.28l.105-.096.575-.614.585-.604.585-.613.575-.604.566-.594zm-4.975-3.164h-3.538l-.153.077-.364.192-.374.191-.364.192-.365.192-.747.383-.365.192-.364.192-.374.191-.364.192-.336.182L6.5 21.02l.374.259.364.259.374.249.729.518.373.258.163.125.211-.259.365-.48.028-.047-.028-.029-.365-.259-.374-.268-.373-.259-.365-.259-.364-.258-.105-.068.028-4.438.077-.038.364-.182.365-.192.373-.173.374-.191.729-.365.374-.182.364-.182.374-.192h.01l.153.058.011.003 3.143 1.358V13.35zm8.876-4.103l-.067.077-.24.297-.249.307-.057.086.057.067.25.202.24.191.239.211.249.202.24.2.249.212.24.201.115.096.01 4.534-.125.077-.24.163-.25.144-.239.163-.25.143-.239.163-.24.144-.249.163-.24.144-.24.163-.239.144-.24.163-.249.143-.24.163-.239.144-.24.163-.249.144.25.383.24.393.047.067.192-.124.24-.154.249-.143.24-.154.239-.153.24-.153.24-.144.248-.154.24-.143.24-.154.249-.153.24-.154.249-.143.24-.154.24-.143.239-.154.24-.153.249-.154.24-.143-.01-5.55-.23-.183-.25-.201-.24-.192-.239-.192-.24-.2-.24-.183-.248-.192-.24-.201-.25-.192-.172-.144zM15.818 5.25l-.182.086-.374.211-.365.192-.364.201-.374.211-.374.192-.373.201.373.22.374.211.23.135.144-.067.364-.202.365-.191.374-.192.153-.077.22.125.374.22.729.422.747.441.374.21.729.442.374.21.747.442.115.057v4.381h-2.617v.005l-.019-.005.01 2.464.077-.03.097-.041.418-.169.127-.048.125-.054.381-.153.136-.052.326-.134.022-.009.605-.244.015-.006.046-.019 1.239-.498V8.394l-.364-.22-.374-.211-.365-.22-.373-.221-.374-.211-.374-.22-.364-.221-.365-.21-.374-.221-.373-.22-.374-.212-.365-.22-.364-.22-.374-.212-.191-.105zM12.05 6.966l-.45.268-.46.288-.46.278-.46.287-.46.278-.47.278-.451.288-.47.278-.46.288-.46.287-.46.278-.45.278-.02 3.365h.47l.46.01h.067l.01-2.819.383-.24.46-.277.47-.278.45-.298.47-.278.46-.287.92-.556.46-.288.47-.278.01-.01.441.26.47.258.92.537.46.259.47.259.45.268.451.25.02-.039.46-.824-.46-.269-.47-.259-.451-.258-.47-.26-.46-.277-.46-.259-.46-.259-.47-.259-.45-.259-.02-.01z" fill="#FFF" fill-rule="evenodd"/></svg>
